material/.icons/material/size-xxl.svg

<svg xmlns="http://www.w3.org/2000/svg" viewBox="0 0 24 24"><path d="M9 7h2l1 2.5L13 7h2l-2 5 2 5h-2l-1-2.5-1 2.5H9l2-5-2-5m7 0h2v8h4v2h-6V7M2 7h2l1 2.5L6 7h2l-2 5 2 5H6l-1-2.5L4 17H2l2-5-2-5z"/></svg>

<?xml version="1.0" encoding="UTF-8"?><!DOCTYPE svg PUBLIC "-//W3C//DTD SVG 1.1//EN" "http://www.w3.org/Graphics/SVG/1.1/DTD/svg11.dtd"><svg xmlns="http://www.w3.org/2000/svg" xmlns:xlink="http://www.w3.org/1999/xlink" version="1.1" id="mdi-size-xxl" width="24" height="24" viewBox="0 0 24 24"><path d="M9 7H11L12 9.5L13 7H15L13 12L15 17H13L12 14.5L11 17H9L11 12L9 7M16 7H18V15H22V17H16V7M2 7H4L5 9.5L6 7H8L6 12L8 17H6L5 14.5L4 17H2L4 12L2 7Z" /></svg>
